Papirus/64x64/apps/org.gabmus.gnome-feeds.svg

<svg xmlns="http://www.w3.org/2000/svg" width="64" height="64" version="1">
 <flowRoot style="font-size:40px;line-height:1.25;letter-spacing:0px;word-spacing:0px" transform="translate(0,16)" xml:space="preserve">
  <flowRegion>
   <rect width="165" height="615" x="1305" y="-877"/>
  </flowRegion>
  <flowPara/>
 </flowRoot>
 <flowRoot style="font-size:40px;line-height:1.25;letter-spacing:0px;word-spacing:0px" transform="translate(0,16)" xml:space="preserve">
  <flowRegion>
   <rect width="3865" height="2420" x="700" y="-1422"/>
  </flowRegion>
  <flowPara/>
 </flowRoot>
 <flowRoot style="font-size:40px;line-height:1.25;letter-spacing:0px;word-spacing:0px" transform="translate(0,16)" xml:space="preserve">
  <flowRegion>
   <rect width="1700" height="1645" x="1030" y="-1062"/>
  </flowRegion>
  <flowPara/>
 </flowRoot>
 <flowRoot style="font-size:40px;line-height:1.25;letter-spacing:0px;word-spacing:0px" transform="translate(0,16)" xml:space="preserve">
  <flowRegion>
   <rect width="1575" height="1475" x="660" y="-1162"/>
  </flowRegion>
  <flowPara/>
 </flowRoot>
 <path style="opacity:0.2" d="m 2,47.089844 v 4.855468 2.015626 c 0,2.181954 1.8114626,3.93855 4.0898438,4.023438 V 58 h 0.167968 21.4843762 0.16796 V 57.9844 C 30.188528,57.899506 32,56.142892 32,53.960938 c 0,2.181954 1.811462,3.93855 4.089844,4.023438 V 58 h 0.16796 21.484376 0.16796 V 57.9844 C 60.188558,57.899506 62,56.142892 62,53.960938 V 51.945312 47.089844 H 57.910156 36.089844 32 27.910156 6.0898438 Z"/>
 <path style="fill:#ff8915" d="m 32,46.09091 v 4.852628 2.01882 c 0,2.181954 1.812528,3.936774 4.09091,4.021662 V 57 h 0.16778 21.4826 0.16778 V 56.984 C 60.187472,56.899132 62,55.14431 62,52.962356 V 50.943538 46.09091 H 57.90909 36.09091 Z"/>
 <path style="fill:#ff8915" d="m 2,46.09091 v 4.852628 2.01882 c 0,2.181954 1.812528,3.936774 4.0909092,4.021662 V 57 H 6.2587012 27.7413 27.9091 V 56.984 C 30.187472,56.899132 32,55.14431 32,52.962356 V 50.943538 46.09091 H 27.90909 6.0909092 Z"/>
 <path style="opacity:0.2" d="m 6.2574368,9.999998 c -2.3585186,0 -4.257254,1.81549 -4.257254,4.070605 V 37.71758 47.894094 49.929396 C 2.0001828,52.18451 3.8989182,54 6.2574368,54 H 57.742564 c 2.358518,0 4.257254,-1.81549 4.257254,-4.070604 V 47.894094 37.71758 14.070603 c 0,-2.255115 -1.898736,-4.070605 -4.257254,-4.070605 z"/>
 <path style="fill:#e4e4e4" d="m 6.2574368,8.9999982 c -2.3585186,0 -4.257254,1.8154898 -4.257254,4.0706048 V 36.71758 46.894094 48.929396 C 2.0001828,51.18451 3.8989182,53 6.2574368,53 H 57.742564 c 2.358518,0 4.257254,-1.81549 4.257254,-4.070604 V 46.894094 36.71758 13.070603 c 0,-2.255115 -1.898736,-4.0706048 -4.257254,-4.0706048 z"/>
 <path style="opacity:0.05" d="m 6.2574368,8.9999982 c -2.3585186,0 -4.257254,1.8154898 -4.257254,4.0706048 V 36.71758 46.894094 48.929396 C 2.0001828,51.18451 3.8989182,53 6.2574368,53 H 32 V 8.9999982 Z"/>
 <path style="fill:#ff8915" d="M 44,26.999708 A 3.000001,3.0002508 0 0 1 40.999998,29.99996 3.000001,3.0002508 0 0 1 38,26.999708 3.000001,3.0002508 0 0 1 40.999998,23.99946 3.000001,3.0002508 0 0 1 44,26.999708 Z" overflow="visible"/>
 <path style="fill:#ff8915" d="m 38,19.016308 v 1.375471 0.01608 a 1.3726744,1.3727889 0 0 0 1.37145,1.355361 1.3726744,1.3727889 0 0 0 0.02012,0 v 0.0201 c 3.76232,0 6.781424,2.98528 6.853216,6.728543 a 1.3726744,1.3727889 0 0 0 -0.0078,0.116643 1.3726744,1.3727889 0 0 0 1.371449,1.371446 1.3726744,1.3727889 0 0 0 0.02012,0 h 1.35134 V 28.644594 H 49 c 0,-5.168115 -4.12709,-9.378206 -9.250239,-9.571985 a 1.3726744,1.3727889 0 0 0 -0.357942,-0.0563 h -0.02012 z"/>
 <path style="fill:#ff8915" d="m 38,13.99996 v 1.332031 0.01954 a 1.3332223,1.3333335 0 0 0 1.332032,1.316407 1.3332223,1.3333335 0 0 0 0.0196,0 v 0.03516 a 11.96167,11.962668 0 0 1 11.9804,11.98046 1.3332223,1.3333335 0 0 0 1.33203,1.316406 1.3332223,1.3333335 0 0 0 0.0196,0 H 54 v -1.316406 a 1.3332223,1.3333335 0 0 0 0,-0.0078 c -2.4e-5,-0.03432 -0.0036,-0.0673 -0.004,-0.10156 a 1.3332223,1.3333335 0 0 0 -0.004,-0.02344 c -0.0727,-7.88416 -6.410326,-14.291726 -14.265626,-14.492192 0,0 -0.004,0 -0.004,0 a 1.3332223,1.3333335 0 0 0 -0.370812,-0.05861 h -0.0196 z"/>
 <rect style="fill:#ff8915" width="14" height="3" x="8" y="14" ry="0"/>
 <rect style="fill:#9c9891" width="16" height="3" x="8" y="20" ry="0"/>
 <rect style="fill:#9c9891" width="14" height="3" x="8" y="26" ry="0"/>
 <rect style="fill:#9c9891" width="16" height="3" x="8" y="32" ry="0"/>
 <rect style="fill:#9c9891" width="10" height="3" x="8" y="38" ry="0"/>
 <rect style="fill:#9c9891" width="16" height="3" x="8" y="44" ry="0"/>
 <rect style="fill:#9c9891" width="16" height="3" x="38" y="44" ry="0"/>
 <rect style="fill:#9c9891" width="16" height="3" x="38" y="38" ry="0"/>
 <rect style="fill:#9c9891" width="10" height="3" x="38" y="32" ry="0"/>
 <path style="opacity:0.2;fill:#ffffff" d="M 6.2578125 9 C 3.8992939 9 2 10.815198 2 13.070312 L 2 14.070312 C 2 11.815198 3.8992939 10 6.2578125 10 L 57.742188 10 C 60.100706 10 62 11.815198 62 14.070312 L 62 13.070312 C 62 10.815198 60.100706 9 57.742188 9 L 6.2578125 9 z"/>
</svg>

<svg xmlns="http://www.w3.org/2000/svg" width="64" height="64" version="1">
 <path style="opacity:0.2" d="M 2,47 V 53.961 C 2,56.143 3.8115,57.915 6.0898,58 H 27.91 C 30.189,57.916 32,56.143 32,53.961 32,56.143 33.811,57.915 36.09,58 H 57.91 C 60.189,57.916 62,56.143 62,53.961 V 47 Z"/>
 <path style="fill:#ff8915" d="M 32,46 V 52.962 C 32,55.144 33.813,56.915 36.091,57 H 57.909 C 60.187,56.915 62,55.144 62,52.962 V 46 Z"/>
 <path style="fill:#ff8915" d="M 2,46 V 52.962 C 2,55.144 3.8125,56.915 6.0909,57 H 27.909 C 30.187,56.915 32,55.144 32,52.962 V 46 Z"/>
 <path style="opacity:0.2" d="M 62,14.071 C 62,11.815 60.101,10 57.743,10 H 6.2574 C 3.8989,10 2.0002,11.815 2.0002,14.071 V 49.929 C 2.0002,52.185 3.8989,54 6.2574,54 H 57.743 C 60.101,54 62,52.185 62,49.929"/>
 <path style="fill:#e4e4e4" d="M 6.2574,9 C 3.8989,9 2.0002,10.815 2.0002,13.071 V 48.929 C 2.0002,51.185 3.8989,53 6.2574,53 H 57.743 C 60.101,53 62,51.185 62,48.929 V 13.071 C 62,10.815 60.101,9 57.743,9 Z"/>
 <path style="opacity:0.05" d="M 6.2574,9 C 3.8989,9 2.0002,10.815 2.0002,13.071 V 48.929 C 2.0002,51.185 3.8989,53 6.2574,53 H 32 V 9 Z"/>
 <path style="fill:#ff8915" d="M 44,27 A 3,3.0003 0 0 1 41,30 3,3.0003 0 0 1 38,27 3,3.0003 0 0 1 41,23.999 3,3.0003 0 0 1 44,27 Z"/>
 <path style="fill:#ff8915" d="M 38,19.016 V 20.392 20.408 A 1.3727,1.3728 0 0 0 39.371,21.763 1.3727,1.3728 0 0 0 39.392,21.763 V 21.783 C 43.154,21.783 46.173,24.769 46.245,28.512 A 1.3727,1.3728 0 0 0 46.237,28.629 1.3727,1.3728 0 0 0 47.608,30 1.3727,1.3728 0 0 0 47.629,30 H 48.98 V 28.645 H 49 C 49,23.476 44.873,19.266 39.75,19.073 A 1.3727,1.3728 0 0 0 39.392,19.016 H 39.372 Z"/>
 <path style="fill:#ff8915" d="M 38,14 V 15.332 15.352 A 1.3332,1.3333 0 0 0 39.332,16.668 1.3332,1.3333 0 0 0 39.352,16.668 V 16.703 A 11.962,11.963 0 0 1 51.332,28.684 1.3332,1.3333 0 0 0 52.664,30 1.3332,1.3333 0 0 0 52.684,30 H 54 V 28.684 A 1.3332,1.3333 0 0 0 54,28.676 C 54,28.641 53.996,28.608 53.996,28.574 A 1.3332,1.3333 0 0 0 53.992,28.551 C 53.919,20.667 47.582,14.259 39.726,14.059 39.726,14.059 39.722,14.059 39.722,14.059 A 1.3332,1.3333 0 0 0 39.352,14 H 39.332 Z"/>
 <rect style="fill:#ff8915" width="14" height="3" x="8" y="14" ry="0"/>
 <rect style="fill:#9c9891" width="16" height="3" x="8" y="20" ry="0"/>
 <rect style="fill:#9c9891" width="14" height="3" x="8" y="26" ry="0"/>
 <rect style="fill:#9c9891" width="16" height="3" x="8" y="32" ry="0"/>
 <rect style="fill:#9c9891" width="10" height="3" x="8" y="38" ry="0"/>
 <rect style="fill:#9c9891" width="16" height="3" x="8" y="44" ry="0"/>
 <rect style="fill:#9c9891" width="16" height="3" x="38" y="44" ry="0"/>
 <rect style="fill:#9c9891" width="16" height="3" x="38" y="38" ry="0"/>
 <rect style="fill:#9c9891" width="10" height="3" x="38" y="32" ry="0"/>
 <path style="opacity:0.2;fill:#ffffff" d="M 6.2578,9 C 3.8993,9 2,10.815 2,13.07 V 14.07 C 2,11.815 3.8993,10 6.2578,10 H 57.742 C 60.101,10 62,11.815 62,14.07 V 13.07 C 62,10.815 60.101,9 57.742,9 Z"/>
</svg>
